X:103
T: Es kann ja nicht immer so bleiben (1-28), S. 74
N: K1077
O: Luxemburg
S: KINTZELE, Guillaume: An der Ucht, Bd. 1, Luxemburg 1926]
N: in der Quelle mit einer 2. Stimme versehen
R: ermahnendes Lied]
M: 4/4
L: 1/8
K: F
FG | A2Acc2BA | AGG2z2
GB | B2Bdd2cB | c4z2
Fd | d2d2f2ed | dcc4z
f | c2Acc2BB | A4z2
Fd | d2def2ed | dcc4z
f | c2Acc2BB | A4z2

